public/img/beard-icon.svg

<svg height="116" viewBox="0 0 135 116" width="135" xmlns="http://www.w3.org/2000/svg"><g fill="none" fill-rule="evenodd" transform="translate(-837 -1654)"><path d="m0 1355h1200v929h-1200z" fill="#f5f5f5"/><g fill="#4a4a4a" fill-rule="nonzero" transform="matrix(.9961947 -.08715574 .08715574 .9961947 835.2435 1661.05824)"><path d="m26 63c-1.1026667 0-2 .8973333-2 2s.8973333 2 2 2 2-.8973333 2-2-.8973333-2-2-2z"/><path d="m54 91c-1.1026667 0-2 .8973333-2 2s.8973333 2 2 2 2-.8973333 2-2-.8973333-2-2-2z"/><path d="m63 97c-1.1026667 0-2 .8973333-2 2 0 1.102667.8973333 2 2 2s2-.897333 2-2c0-1.1026667-.8973333-2-2-2z"/><path d="m131.524686 24.7744662c-1.944421.3093148-3.849212.4662466-5.661059.4662466-12.477936 0-19.738437-7.1904318-26.7603054-14.1443288-5.7619861-5.70640311-11.2046538-11.096384-18.8189716-11.096384-4.1206326 0-8.4779029 1.60769777-13.2842147 4.90809801-4.8060267-3.30040024-9.1635821-4.90809801-13.2842147-4.90809801-7.6151731 0-13.0586961 5.39026519-18.8218226 11.0969526-7.0215831 6.9530441-14.2823698 14.1429073-26.75773967 14.1437602-1.81127648 0-3.71606762-.1566475-5.66105867-.4662466-.76636411-.1222476-1.5372899.1791069-2.01683768.7863646-.47954778.6072578-.59216453 1.4257479-.29394397 2.1393326 1.39673279 3.3424762 3.65847627 6.3446492 6.52578424 8.8620963-.65260694 1.9099052-.98789124 3.9011192-.98789124 5.9420851 0 5.7311369 2.70508283 11.1356169 7.19179119 14.6094382-3.02126509 4.2817924-4.56568263 9.428131-4.38207457 14.7268526.21268885 6.131711 2.72703597 11.8992379 7.08002967 16.240164 5.9966281 5.9796122 14.798126 8.3662829 22.9555701 6.3722259 3.9914798 12.2034355 15.3897203 20.5469745 28.4524079 20.5469745 13.0624025 0 24.4609282-8.343255 28.4524079-20.5469745 6.5856568 1.6128151 13.6599838.4019956 19.3176218-3.3888165.980193-.6567253 1.241065-1.9815479.582185-2.9589599-.019387-.0289983-.04134-.0551536-.062153-.0830146-.67627-.9069065-1.954114-1.1346281-2.904942-.4975192-5.172957 3.4661452-11.786269 4.3119278-17.6916632 2.2618644-.5679305-.1973019-1.1937375-.1466971-1.7228937.1395897-.528871.2862868-.9123382.7815316-1.0563166 1.3640555-2.8282485 11.4491961-13.0735216 19.4453251-24.9142462 19.4453251-11.8410097 0-22.0857126-7.996129-24.9139611-19.4456094-.1439784-.5825239-.5274455-1.078053-1.0566017-1.3640555-.5294413-.2862868-1.1552483-.3368916-1.7226086-.1395897-7.1900805 2.4961249-15.3116013.6427948-20.6906905-4.7210308-7.3463184-7.3254727-7.7916535-19.2053784-1.0138358-27.0454281.4148288-.4798928.5941603-1.1187075.4895265-1.7433073-.1046338-.6248841-.4823989-1.171018-1.0309422-1.4902832-4.3683895-2.5433182-7.08202547-7.2492813-7.08202547-12.2819012 0-1.0877191.12630187-2.1561061.36778637-3.1989063 5.2564937 3.3541323 11.7971034 5.3311314 18.6062827 5.3311314 4.1796495 0 9.2699265-.7002227 14.8930662-2.918874 3.0879797 10.0152037 12.4337444 17.0421649 23.1540036 17.0421649 10.7279571 0 20.079709-7.0371959 23.1608462-17.0643401 4.9166477 1.9522654 9.9051425 2.9410492 14.8859385 2.9410492 6.809179 0 13.349789-1.9767148 18.606283-5.3311314.241769 1.0425159.367786 2.1111872.367786 3.1989063 0 5.0326199-2.713636 9.738583-7.08174 12.2819012-.548829.3195494-.926309.8653991-1.030942 1.4902832-.104634.6248841.074697 1.2636988.489526 1.7433073 5.844952 6.7611438 6.443104 16.6535313 1.454324 24.0563328-.638922.948698-.410267 2.2226315.49979 2.8972675.027656.0204694.053885.0423602.082681.0616924.365791.245348.780334.3627626 1.190601.3627626.688246 0 1.363946-.3309214 1.776779-.9432965 5.612021-8.3281871 5.403894-19.24916-.29651-27.3402438 4.486423-3.4738212 7.192362-8.8788698 7.192362-14.6100067 0-2.0409659-.335285-4.0321799-.988177-5.9418008 2.867308-2.5177314 5.129052-5.5196201 6.525785-8.8620963.29822-.7135847.185603-1.5320748-.293659-2.1393326-.480118-.607542-1.25304-.9083279-2.017123-.7866489zm-64.5245507 29.7209443c-9.0116208 0-16.8460402-6.0268055-19.2209706-14.5466086 6.066479-3.0669927 12.6139313-7.9705419 19.2215408-15.6300633 5.767118 6.6764234 11.9838477 11.7943324 18.5090617 15.2323322.2394888.1262277.4795478.2453481.7196068.367027-2.3649518 8.5357238-10.207069 14.5773127-19.2292387 14.5773127zm38.0467847-14.1232909c-8.9049912 0-22.4463713-3.5949316-36.3866142-20.7218169-.4059905-.4989407-1.0158316-.788639-1.6601705-.788639s-1.2541799.2896983-1.6601704.7883547c-13.940243 17.1268853-27.481623 20.7218169-36.3866143 20.7218169-10.8422844 0-18.9153373-5.1943847-22.95015308-10.9286489.7207472.041223 1.43294122.0616924 2.13344591.0616924 14.23817837-.0008529 22.49027757-8.1723926 29.77102177-15.3821566 5.3420253-5.28990843 9.9556057-9.85855619 15.8082554-9.85855619 3.5336 0 7.4634969 1.62845142 12.014354 4.97831929.7549598.55580002 1.7850467.55551572 2.5397215 0 4.5508571-3.34986787 8.480754-4.97831929 12.0143539-4.97831929 5.8512242 0 10.4642343 4.56807917 15.8056895 9.85770329 7.2807445 7.2103326 15.5331285 15.3830095 29.7738725 15.3830095.70079 0 1.412699-.0207537 2.133446-.0619767-4.034816 5.7345485-12.107868 10.9292175-22.950438 10.9292175z"/></g></g></svg>

<?xml version="1.0" encoding="UTF-8"?>
<svg width="135px" height="116px" viewBox="0 0 135 116" version="1.1" xmlns="http://www.w3.org/2000/svg" xmlns:xlink="http://www.w3.org/1999/xlink">
    <!-- Generator: Sketch 49.3 (51167) - http://www.bohemiancoding.com/sketch -->
    <title>beard</title>
    <desc>Created with Sketch.</desc>
    <defs></defs>
    <g id="Page-1" stroke="none" stroke-width="1" fill="none" fill-rule="evenodd">
        <g id="Home" transform="translate(-837.000000, -1654.000000)">
            <rect id="Rectangle-7" fill="#F5F5F5" x="0" y="1355" width="1200" height="929"></rect>
            <g id="beard" transform="translate(907.000000, 1712.500000) rotate(-5.000000) translate(-907.000000, -1712.500000) translate(840.000000, 1655.000000)" fill="#4A4A4A" fill-rule="nonzero">
                <path d="M26,63 C24.8973333,63 24,63.8973333 24,65 C24,66.1026667 24.8973333,67 26,67 C27.1026667,67 28,66.1026667 28,65 C28,63.8973333 27.1026667,63 26,63 Z" id="Shape"></path>
                <path d="M54,91 C52.8973333,91 52,91.8973333 52,93 C52,94.1026667 52.8973333,95 54,95 C55.1026667,95 56,94.1026667 56,93 C56,91.8973333 55.1026667,91 54,91 Z" id="Shape"></path>
                <path d="M63,97 C61.8973333,97 61,97.8973333 61,99 C61,100.102667 61.8973333,101 63,101 C64.1026667,101 65,100.102667 65,99 C65,97.8973333 64.1026667,97 63,97 Z" id="Shape"></path>
                <path d="M131.524686,24.7744662 C129.580265,25.083781 127.675474,25.2407128 125.863627,25.2407128 C113.385691,25.2407128 106.12519,18.050281 99.1033216,11.096384 C93.3413355,5.38998089 87.8986678,0 80.28435,0 C76.1637174,0 71.8064471,1.60769777 67.0001353,4.90809801 C62.1941086,1.60769777 57.8365532,0 53.7159206,0 C46.1007475,0 40.6572245,5.39026519 34.894098,11.0969526 C27.8725149,18.0499967 20.6117282,25.2398599 8.13635833,25.2407128 C6.32508185,25.2407128 4.42029071,25.0840653 2.47529966,24.7744662 C1.70893555,24.6522186 0.938009755,24.9535731 0.458461977,25.5608308 C-0.0210858011,26.1680886 -0.13370255,26.9865787 0.164518006,27.7001634 C1.5612508,31.0426396 3.82299428,34.0448126 6.69030225,36.5622597 C6.03769531,38.4721649 5.70241101,40.4633789 5.70241101,42.5043448 C5.70241101,48.2354817 8.40749384,53.6399617 12.8942022,57.113783 C9.87293711,61.3955754 8.32851957,66.541914 8.51212763,71.8406356 C8.72481648,77.9723466 11.2391636,83.7398735 15.5921573,88.0807996 C21.5887854,94.0604118 30.3902833,96.4470825 38.5477274,94.4530255 C42.5392072,106.656461 53.9374477,115 67.0001353,115 C80.0625378,115 91.4610635,106.656745 95.4525432,94.4530255 C102.0382,96.0658406 109.112527,94.8550211 114.770165,91.064209 C115.750358,90.4074837 116.01123,89.0826611 115.35235,88.1052491 C115.332963,88.0762508 115.31101,88.0500955 115.290197,88.0222345 C114.613927,87.115328 113.336083,86.8876064 112.385255,87.5247153 C107.212298,90.9908605 100.598986,91.8366431 94.6935918,89.7865797 C94.1256613,89.5892778 93.4998543,89.6398826 92.9706981,89.9261694 C92.4418271,90.2124562 92.0583599,90.707701 91.9143815,91.2902249 C89.086133,102.739421 78.8408599,110.73555 67.0001353,110.73555 C55.1591256,110.73555 44.9144227,102.739421 42.0861742,91.2899406 C41.9421958,90.7074167 41.5587287,90.2118876 41.0295725,89.9258851 C40.5001312,89.6395983 39.8743242,89.5889935 39.3069639,89.7862954 C32.1168834,92.2824203 23.9953626,90.4290902 18.6162734,85.0652646 C11.269955,77.7397919 10.8246199,65.8598862 17.6024376,58.0198365 C18.0172664,57.5399437 18.1965979,56.901129 18.0919641,56.2765292 C17.9873303,55.6516451 17.6095652,55.1055112 17.0610219,54.786246 C12.6926324,52.2429278 9.97899643,47.5369647 9.97899643,42.5043448 C9.97899643,41.4166257 10.1052983,40.3482387 10.3467828,39.3054385 C15.6032765,42.6595708 22.1438862,44.6365699 28.9530655,44.6365699 C33.132715,44.6365699 38.222992,43.9363472 43.8461317,41.7176959 C46.9341114,51.7328996 56.2798761,58.7598608 67.0001353,58.7598608 C77.7280924,58.7598608 87.0798443,51.7226649 90.1609815,41.6955207 C95.0776292,43.6477861 100.066124,44.6365699 105.04692,44.6365699 C111.856099,44.6365699 118.396709,42.6598551 123.653203,39.3054385 C123.894972,40.3479544 124.020989,41.4166257 124.020989,42.5043448 C124.020989,47.5369647 121.307353,52.2429278 116.939249,54.786246 C116.39042,55.1057954 116.01294,55.6516451 115.908307,56.2765292 C115.803673,56.9014133 115.983004,57.540228 116.397833,58.0198365 C122.242785,64.7809803 122.840937,74.6733678 117.852157,82.0761693 C117.213235,83.0248673 117.44189,84.2988008 118.351947,84.9734368 C118.379603,84.9939062 118.405832,85.015797 118.434628,85.0351292 C118.800419,85.2804772 119.214962,85.3978918 119.625229,85.3978918 C120.313475,85.3978918 120.989175,85.0669704 121.402008,84.4545953 C127.014029,76.1264082 126.805902,65.2054353 121.105498,57.1143515 C125.591921,53.6405303 128.29786,48.2354817 128.29786,42.5043448 C128.29786,40.4633789 127.962575,38.4721649 127.309683,36.562544 C130.176991,34.0448126 132.438735,31.0429239 133.835468,27.7004477 C134.133688,26.986863 134.021071,26.1683729 133.541809,25.5611151 C133.061691,24.9535731 132.288769,24.6527872 131.524686,24.7744662 Z M67.0001353,54.4954105 C57.9885145,54.4954105 50.1540951,48.468605 47.7791647,39.9488019 C53.8456437,36.8818092 60.393096,31.97826 67.0007055,24.3187386 C72.7678235,30.995162 78.9845532,36.113071 85.5097672,39.5510708 C85.749256,39.6772985 85.989315,39.7964189 86.229374,39.9180978 C83.8644222,48.4538216 76.022305,54.4954105 67.0001353,54.4954105 Z M105.04692,40.3721196 C96.1419288,40.3721196 82.6005487,36.777188 68.6603058,19.6503027 C68.2543153,19.151362 67.6444742,18.8616637 67.0001353,18.8616637 C66.3557964,18.8616637 65.7459554,19.151362 65.3399649,19.6500184 C51.3997219,36.7769037 37.8583419,40.3718353 28.9533506,40.3718353 C18.1110662,40.3718353 10.0380133,35.1774506 6.00319752,29.4431864 C6.72394472,29.4844094 7.43613874,29.5048788 8.13664343,29.5048788 C22.3748218,29.5040259 30.626921,21.3324862 37.9076652,14.1227222 C43.2496905,8.83281377 47.8632709,4.26416601 53.7159206,4.26416601 C57.2495206,4.26416601 61.1794175,5.89261743 65.7302746,9.2424853 C66.4852344,9.79828532 67.5153213,9.79800102 68.2699961,9.2424853 C72.8208532,5.89261743 76.7507501,4.26416601 80.28435,4.26416601 C86.1355742,4.26416601 90.7485843,8.83224518 96.0900395,14.1218693 C103.370784,21.3322019 111.623168,29.5048788 125.863912,29.5048788 C126.564702,29.5048788 127.276611,29.4841251 127.997358,29.4429021 C123.962542,35.1774506 115.88949,40.3721196 105.04692,40.3721196 Z" id="Shape"></path>
            </g>
        </g>
    </g>
</svg>
